src/svgs/towel-rail.svg

<svg xmlns="http://www.w3.org/2000/svg" viewBox="0 0 24 24" width="512" height="512" aria-labelledby="lytowel-rail-desc lytowel-rail-title"><title id="lytowel-rail-title">Towel Rail Icon</title><desc id="lytowel-rail-desc">A picture depicting a towel rail in a bathroom.</desc><path d="M3 22a1 1 0 01-1-1V3a1 1 0 011-1 1 1 0 011 1v18a1 1 0 01-1 1zm16-10v2h1a2 2 0 010 4h-1v2h3v1h-3v1h-9v-1H8a2 2 0 010-4h2v-2H8a2 2 0 010-4h11.706A1.178 1.178 0 0021 10a1.178 1.178 0 00-1.294-1H8a2 2 0 010-4h11.706A1.178 1.178 0 0021 4a1.178 1.178 0 00-1.294-1H6V2h14a2 2 0 010 4H8.294A1.178 1.178 0 007 7a1.178 1.178 0 001.294 1H20a2 2 0 010 4zm-9 6H8.294A1.178 1.178 0 007 19a1.178 1.178 0 001.294 1H10zm9-3v2h.706A1.178 1.178 0 0021 16a1.178 1.178 0 00-1.294-1zm-9-3H8.294A1.178 1.178 0 007 13a1.178 1.178 0 001.294 1H10z"/></svg>

<svg xmlns="http://www.w3.org/2000/svg" viewBox="0 0 24 24"><path d="M3,22H3a1,1,0,0,1-1-1V3A1,1,0,0,1,3,2H3A1,1,0,0,1,4,3V21A1,1,0,0,1,3,22ZM19,12v2h1a2,2,0,0,1,0,4H19v2h3v1H19v1H10V21H8a2,2,0,0,1,0-4h2V15H8a2,2,0,0,1,0-4H19.706A1.178,1.178,0,0,0,21,10a1.178,1.178,0,0,0-1.294-1H8A2,2,0,0,1,8,5H19.706A1.178,1.178,0,0,0,21,4a1.178,1.178,0,0,0-1.294-1H6V2H20a2,2,0,0,1,0,4H8.294A1.178,1.178,0,0,0,7,7,1.178,1.178,0,0,0,8.294,8H20a2,2,0,0,1,0,4Zm-9,6H8.294A1.178,1.178,0,0,0,7,19a1.178,1.178,0,0,0,1.294,1H10Zm9-3v2h.706A1.178,1.178,0,0,0,21,16a1.178,1.178,0,0,0-1.294-1Zm-9-3H8.294A1.178,1.178,0,0,0,7,13a1.178,1.178,0,0,0,1.294,1H10Z"/></svg>
